src/images/backend-logo-mysql.svg

<svg xmlns="http://www.w3.org/2000/svg" width="11" height="19" viewBox="0 0 11 19">
  <g fill="#00546B">
    <path d="M10.1321751,14.695164 C9.53366274,14.6689026 9.06980678,14.774283 8.68076086,15.0638325 C8.56853978,15.1427852 8.38896676,15.142868 8.37399469,15.3929401 C8.43388415,15.4983219 8.44134624,15.669442 8.49372573,15.8142163 C8.58355971,16.0774194 8.74060284,16.4329569 8.88276844,16.6172908 C9.03985904,16.8278868 9.1969971,17.0384828 9.36155181,17.2228167 C9.65334591,17.5387947 9.98254583,17.7230443 10.2668304,18.0390208 C10.4314784,18.223187 10.595984,18.4602964 10.7605854,18.6577614 C10.8429094,18.7629755 10.8952414,18.9341783 11,19 C11,18.9867854 11,18.9736544 11,18.960524 C10.9476205,18.8420125 10.9326485,18.6708924 10.8803164,18.5392484 C10.8055498,18.4076051 10.7306883,18.2890929 10.6558743,18.1574496 C10.4388942,17.6440895 10.1695809,17.1964725 9.87779047,16.8278868 C9.63842332,16.5382538 9.11467832,16.1433239 9.01742689,15.656226 C9.01747436,15.656226 9.00991693,15.6430949 9.00245443,15.6299638 C9.16705499,15.6036182 9.36155261,15.4983212 9.51869108,15.4192843 C9.77307815,15.3007727 10.0049844,15.3271177 10.2668316,15.2086883 C10.3865151,15.1559984 10.5062462,15.0901767 10.6259298,15.0243544 C10.6259298,14.9847948 10.6259298,14.9454023 10.6259298,14.9059263 C10.4913216,14.6689004 10.3940251,14.3530075 10.2518591,14.1291954 C9.87032636,13.5498481 9.45133792,12.9838802 9.01742528,12.5099955 C8.78547317,12.2467088 8.48621697,12.0755046 8.23934147,11.8517775 C8.14960243,11.7726584 7.99992686,11.733266 7.94759484,11.6016212 C7.81289134,11.3119897 7.73807729,10.9302743 7.64082868,10.5879486 C7.42394396,9.86382975 7.21437774,9.0609181 7.02734462,8.29740247 C6.89273646,7.78395959 6.81041244,7.27051459 6.64581188,6.7966376 C5.87523803,4.55870134 5.03730781,3.20278728 3.75049732,1.8731396 C3.47367568,1.59672121 3.14452323,1.47820968 2.79288634,1.3334353 C2.60589868,1.32022072 2.41881569,1.2939593 2.23177896,1.28074471 C2.11209538,1.1885767 1.99236434,0.938505374 1.88760537,0.819992775 C1.46125097,0.346026607 0.361425312,-0.680694239 0.0471974562,0.675218401 C-0.154810131,1.5309031 0.346454055,2.37336719 0.518515105,2.80785523 C0.645756108,3.11061927 0.810309205,3.4528579 0.900095718,3.7951843 C0.952475206,4.01882787 0.967399803,4.25593588 1.01977929,4.49287756 C1.13951033,5.07197506 1.25168394,5.71714123 1.408822,6.25693542 C1.49114601,6.53335381 1.58088506,6.82298608 1.68564364,7.07305529 C1.74548522,7.21782966 1.85019673,7.28373483 1.87267876,7.52067651 C1.76796765,7.78396242 1.76045769,8.17889377 1.70056823,8.50800487 C1.43125656,9.99555516 1.53601514,11.8385686 1.91754828,12.9311882 C2.03723186,13.2602137 2.32156185,13.9844196 2.70309781,13.7079191 C3.03976143,13.4709768 2.96494698,12.7205908 3.062196,12.0623735 C3.08467842,11.904301 3.06970596,11.7990876 3.11457548,11.6937885 C3.11462295,11.7069196 3.11457548,11.7201335 3.11457548,11.7201335 C3.21933406,12.0887185 3.32404557,12.4441752 3.42129418,12.8127538 C3.65324629,13.4577565 4.05721561,14.1291876 4.39387682,14.5768131 C4.57349731,14.8136699 4.71561544,15.2218158 4.94005679,15.366673 C4.94005679,15.3533742 4.94005679,15.3403273 4.94005679,15.3271127 C4.93254682,15.3271127 4.93254682,15.3271127 4.92508473,15.3271127 C4.88016774,15.2086012 4.81286365,15.1559927 4.75302166,15.0638268 C4.61836563,14.8268851 4.46869006,14.5372522 4.36397895,14.273967 C4.04979776,13.5367106 3.77292826,12.7205915 3.52605275,11.8780432 C3.40636918,11.4699822 3.30161061,11.0223574 3.20436159,10.6142978 C3.15944461,10.4562261 3.15944461,10.2193679 3.08463056,10.1404159 C2.97240948,10.4299639 2.80785639,10.6801202 2.72553237,11.0355748 C2.5834617,11.6016248 2.56844177,12.2993194 2.51606229,13.0233534 C2.48616482,13.0365687 2.50108982,13.0233534 2.48611736,13.0496998 C2.24675021,12.9443179 2.1644262,12.5099955 2.07463808,12.1413262 C1.85019593,11.2066934 1.8127889,9.70592148 2.00733399,8.6265157 C2.05971348,8.3500145 2.28415563,7.4811998 2.19436911,7.21791247 C2.14949959,6.96775621 1.99982403,6.82298254 1.91754748,6.62551758 C1.82029847,6.37536132 1.71553989,6.05946763 1.64823581,5.78296926 C1.46866278,5.04579787 1.37887667,4.22959377 1.18437985,3.49233745 C1.09459334,3.15001459 0.937502743,2.79464419 0.810309205,2.47874908 C0.668191071,2.12329587 0.511052606,1.8731396 0.398829923,1.45186261 C0.361470364,1.30708824 0.30904341,1.07014727 0.368885398,0.912157601 C0.383857862,0.806860295 0.413754922,0.767383581 0.473643973,0.741037932 C0.570892985,0.596180038 0.847714621,0.780513938 0.944961622,0.859467011 C1.22178326,1.05684775 1.45368831,1.24126658 1.68564042,1.51768427 C1.79035153,1.64932758 1.9025726,1.89948384 2.03722864,1.96530549 C2.08960813,1.96530549 2.14198721,1.96530549 2.1943667,1.96530549 C2.43378131,2.05738928 2.70309339,1.99164973 2.92753553,2.11007987 C3.32408821,2.33380696 3.68313772,2.66299875 4.00487956,3.01845338 C4.98497217,4.11107374 5.79290678,5.66453416 6.33909077,7.52067722 C6.42887728,7.82335703 6.46623684,8.09994105 6.54856086,8.41583615 C6.70569892,9.06092234 6.90019654,9.7191396 7.05728754,10.3510119 C7.21437814,10.9696689 7.36400624,11.6016262 7.58844758,12.1150698 C7.70071612,12.3914046 8.14955496,12.5362618 8.35155973,12.6811197 C8.50118783,12.7995492 8.73314034,12.904931 8.86779638,13.0497047 C9.12213599,13.3260389 9.37652307,13.642101 9.61593687,13.9448636 C9.73566791,14.1027698 10.1096919,14.4319616 10.1321735,14.6951654 L10.1321751,14.695164 Z"/>
    <path d="M2.51246807,3 C2.29995208,3 2.15001603,3.02176581 2,3.05427696 C2,3.05420817 2,3.06515986 2,3.07597398 C2.01254771,3.07597398 2.0124684,3.07597398 2.02501611,3.07597398 C2.12507989,3.24941088 2.29995275,3.36870897 2.42495267,3.52044826 C2.52501645,3.69388515 2.61245254,3.86739142 2.71251632,4.0408971 C2.72498405,4.03001419 2.73745246,4.01920007 2.73745246,4.01920007 C2.91256391,3.9107161 3,3.73727921 3,3.47712357 C2.92495233,3.40121895 2.91248393,3.32531492 2.84998397,3.2494103 C2.77501561,3.14092575 2.61245187,3.08678752 2.51246807,3 Z"/>
  </g>
</svg>

<svg xmlns="http://www.w3.org/2000/svg" width="110" height="190" viewBox="0 0 11 19"><g fill="#00546B"><path d="M10.13 14.7c-.6-.03-1.06.07-1.45.36-.11.08-.3.08-.3.33.05.1.06.28.11.42.1.27.25.62.4.8.15.22.3.43.47.61.3.32.62.5.9.82.17.18.34.42.5.62.08.1.14.27.24.34v-.04c-.05-.12-.07-.29-.12-.42l-.22-.38a5.76 5.76 0 0 0-.78-1.33c-.24-.3-.77-.69-.86-1.17L9 15.63c.17-.03.36-.13.52-.21.25-.12.48-.1.75-.21.12-.05.24-.12.36-.19v-.11c-.14-.24-.24-.56-.38-.78a13.1 13.1 0 0 0-1.23-1.62c-.23-.26-.53-.43-.78-.66-.09-.08-.24-.12-.3-.25-.13-.29-.2-.67-.3-1.01-.22-.73-.43-1.53-.61-2.3-.14-.5-.22-1.02-.38-1.5-.77-2.23-1.61-3.59-2.9-4.92-.28-.27-.6-.4-.96-.54l-.56-.05C2.11 1.18 2 .94 1.9.82 1.46.35.36-.68.05.68c-.2.85.3 1.7.47 2.13.13.3.29.64.38.99.05.22.07.46.12.7.12.57.23 1.22.39 1.76.08.27.17.56.28.81.06.15.16.21.18.45-.1.26-.11.66-.17.99a9.86 9.86 0 0 0 .22 4.42c.12.33.4 1.05.78.78.34-.24.26-.99.36-1.65.02-.16.01-.26.05-.37v.03l.31 1.1c.23.64.64 1.3.97 1.76.18.23.33.64.55.79v-.04h-.01c-.05-.12-.12-.17-.18-.27a6.72 6.72 0 0 1-.39-.79c-.31-.73-.59-1.55-.83-2.4-.12-.4-.23-.85-.33-1.26-.04-.15-.04-.4-.12-.47-.1.29-.27.54-.35.9-.15.56-.16 1.26-.21 1.98-.03.02-.02 0-.03.03-.24-.1-.33-.54-.42-.9a9.84 9.84 0 0 1-.06-3.52c.05-.28.27-1.15.18-1.41-.04-.25-.19-.4-.27-.6-.1-.24-.2-.56-.27-.84-.18-.73-.27-1.55-.47-2.29-.09-.34-.24-.7-.37-1.01-.14-.36-.3-.6-.41-1.03C.36 1.31.3 1.07.37.91.38.81.4.77.47.74.57.6.85.78.94.86c.28.2.51.38.75.66.1.13.21.38.35.45h.15c.24.09.51.02.74.14.4.22.75.55 1.07.9.98 1.1 1.8 2.65 2.34 4.51.09.3.13.58.2.9l.52 1.93c.15.62.3 1.25.53 1.77.11.27.56.42.76.56.15.12.38.22.52.37.25.28.5.6.75.9.12.15.49.48.51.75z"/><path d="M2.51 3c-.21 0-.36.02-.51.05v.03h.03c.1.17.27.29.4.44l.28.52.03-.02c.17-.1.26-.28.26-.54-.08-.08-.09-.15-.15-.23-.07-.1-.24-.16-.34-.25z"/></g></svg>
